tape-measure.svg

<svg fill="currentColor" viewBox="0 0 24 24"><path d="M9 5a7 7 0 0 1 7 7h1v3h-1v4H9a7 7 0 0 1-7-7 7 7 0 0 1 7-7m0 3a4 4 0 0 0-4 4 4 4 0 0 0 4 4 4 4 0 0 0 4-4 4 4 0 0 0-4-4m8 9h5v4h-2v-2h-3z"/></svg>

<svg  viewBox="0 0 24 24" fill="currentColor"><path  d="M9,5A7,7 0 0,1 16,12H17V15H16V19H9A7,7 0 0,1 2,12A7,7 0 0,1 9,5M9,8A4,4 0 0,0 5,12A4,4 0 0,0 9,16A4,4 0 0,0 13,12A4,4 0 0,0 9,8M17,17H22V19L22,21H20V19H17V17Z"/></svg>
